X: 39578
T: Teelin Bay
R: waltz
M: 3/4
K: Gmajor
DF|GF G2B2|d4gf|ef g3e|
dB G2gf|ef g3e|dB G2AB|cB d2D2|E4DF|GF G2B2|d4gf|
ef g3f/e/|dB G2gf|ef g3e|dB G2c2|BA G2FG|G6-|G4:|
FG|AF D2GB|cG E2AB|cB d2B2|A4 fg|af d2c'2|bg c2b2|
ag e2c2|A4 FG|AF D2GA|Bd e3d|ed g2B2|A4 gf|g2 d4-|
d4 gf|e2d4-|d4 AB|cB A2G2|E6-|E4 AB|cBAGEC|D6-|d4|
DF|GF G2B2|d4gf|ef g3e|
dB G2gf|ef g3e|dB G2AB|cB d2D2|E4DF|GF G2B2|d4gf|
ef g3f/e/|dB G2gf|ef g3e|dB G2c2|BA G2FG|G6-|G4|

